packages/netlify-cms-ui-default/src/Icon/images/add.svg

<svg height="24" viewBox="0 0 24 24" width="24" xmlns="http://www.w3.org/2000/svg"><path d="m19 14h-4c-.5522847 0-1 .4477153-1 1v4c0 .5522847-.4477153 1-1 1h-2c-.5522847 0-1-.4477153-1-1v-4c0-.5522847-.44771525-1-1-1h-4c-.55228475 0-1-.4477153-1-1v-2c0-.5522847.44771525-1 1-1h4c.55228475 0 1-.44771525 1-1v-4c0-.55228475.4477153-1 1-1h2c.5522847 0 1 .44771525 1 1v4c0 .55228475.4477153 1 1 1h4c.5522847 0 1 .4477153 1 1v2c0 .5522847-.4477153 1-1 1z"/></svg>

<svg xmlns="http://www.w3.org/2000/svg" xmlns:xlink="http://www.w3.org/1999/xlink" width="24" height="24" viewBox="0 0 24 24"><path id="icon-add@2x-a" d="M19,14 L15,14 L15,14 C14.4477153,14 14,14.4477153 14,15 L14,19 L14,19 C14,19.5522847 13.5522847,20 13,20 L11,20 L11,20 C10.4477153,20 10,19.5522847 10,19 L10,15 L10,15 C10,14.4477153 9.55228475,14 9,14 L5,14 L5,14 C4.44771525,14 4,13.5522847 4,13 L4,11 L4,11 C4,10.4477153 4.44771525,10 5,10 L9,10 L9,10 C9.55228475,10 10,9.55228475 10,9 L10,5 L10,5 C10,4.44771525 10.4477153,4 11,4 L13,4 L13,4 C13.5522847,4 14,4.44771525 14,5 L14,9 L14,9 C14,9.55228475 14.4477153,10 15,10 L19,10 L19,10 C19.5522847,10 20,10.4477153 20,11 L20,13 L20,13 C20,13.5522847 19.5522847,14 19,14 Z"/></svg>
